X:1
T:Danse Norvegienne
T:Danse Norvegienne
T:Edward Greig
T:-Ballad
C:Edward Grieg
Z:Public Domain
L:1/8
M:4/4
K:D
V:1 treble 
%%MIDI program 0
%%MIDI control 7 100
%%MIDI control 10 64
V:1
 z A Bc |"D" d2 f2"Gm" A3 c |"D" d2 f2"Gm" A3 g |"D" fefd"Bm7" fefd |"Em7" e4"A7" A4 | %5
"Ebm7b5" abag fg a2 |"Em7" b2 g2"A7" a4 |"Ebm7b5" abag fg a2 |"Em7" b2 g2"A7" a4 | %9
"Am7" abag"D7" f2 d2 |"G" fdec"Gm" defg |"D/A" abag"Bm7" f2 d2 |"Em7" fd"A7"ec"D""A7" d4 |] %13

